X:1
T:Title
%%score ( 1 2 ) { 3 | 4 }
L:1/8
Q:1/4=95
M:4/4
K:G
V:1 treble nm="Grand Piano, Soprano"
V:2 treble 
V:3 treble nm="Choir Pad, Decalogue, W. A. Greenhaw"
V:4 bass 
V:1
 [GB]3 [GB] [GB][GA][DG][DA] | z d3- d3/2 z/ z2 | [Gd]3 [Gd] [GB][GB]GG | A6 z2 | %4
w: By~W.~A.~Greenhaw,~1922 * * * * *||||
 [GB]3 [GB] [GB][GA][DG][DA] | z d3- d3/2 z/ z2 | [Gd]3 [Gd] [GB]G[GB][FA] | GEDE D2 z2 | %8
w: ||||
 [Gd]3 [Gd] [GB][DG][GB][Gd] | z d3- d3/2 z/ z2 | [GB]3 [GB] [Gd][GB]GG | A6 z2 | %12
w: ||||
 [Gd]3 [Gd] [GB][DG][GB][Gd] | [Ge]d-[Fd-][Fd-] [Gd-][G-d]/G/ z2 | [Gd]3 [Gd] [GB]G[GB][FA] | %15
w: |||
 GEDE D4- | D4 z4 |] %17
w: ||
V:2
 x8 | [GB]GFF GG z2 | x8 | FFFF F2 GA | x8 | [GB]GFF GG z2 | x8 | x8 | x8 | [Ge]GFF GG z2 | x8 | %11
 FFFF F2 GB | x8 | z G z2 z4 | x8 | x8 | x8 |] %17
V:3
 D3 D DCB,C | D[K:bass]B,A,A, B,B,B,,D, | B,3 B,[K:treble] DD^CC | DDDD D2 z2 | D3 D DCB,C | %5
 D[K:bass]B,A,A, B,B,B,,D, | B,3 B,[K:treble] DDDC | B,[K:bass]_B,=B,C B,2 z2 | B,3 B, DB,DB, | %9
 CB,A,A, B,B,B,,D, | D3 D B,D^CC | DDDD D2 z2 | B,3 B, DB,DB, | CB,A,A, B,B,B,,D, | %14
 B,3 B,[K:treble] DDDC | B,[K:bass]_B,=B,C B,4- | B,4 z4 |] %17
V:4
 G,3 G, G,G,G,G, | G,G,D,D, G,G, z2 | G,3 G, G,G,E,E, | D,D,D,D, D,2 z2 | G,3 G, G,G,G,G, | %5
 G,G,D,D, G,G, z2 | G,3 G, G,B,,D,D, | G,,6 z2 | G,3 G, G,G,G,G, | G,G,D,D, G,G, z2 | %10
 G,3 G, G,G,E,E, | D,D,D,D, D,2 z2 | G,3 G, G,G,G,G, | G,G,D,D, G,G, z2 | G,3 G, G,B,,D,D, | %15
 .G,,4 z4 | z8 |] %17

